P3
64 16
255
9 23 31
9 23 31
9 23 31
9 23 31
9 23 31
9 23 31
9 23 31
9 23 31
9 23 31
9 23 31
9 23 31
9 23 31
9 23 31
9 23 31
9 23 31
9 23 31
9 23 31
9 23 31
9 23 31
9 23 31
9 23 31
9 23 31
9 23 31
9 23 31
9 23 31
9 23 31
9 23 31
9 23 31
9 23 31
9 23 31
9 23 31
9 23 31
9 23 31
9 23 31
9 23 31
9 23 31
9 23 31
9 23 31
9 23 31
9 23 31
9 23 31
9 23 31
9 23 31
9 23 31
9 23 31
9 23 31
9 23 31
9 23 31
60 95 105
35 65 75
35 65 75
35 65 75
60 95 105
35 65 75
35 65 75
35 65 75
60 95 105
35 65 75
35 65 75
35 65 75
60 95 105
35 65 75
35 65 75
35 65 75
9 23 31
9 23 31
9 23 31
9 23 31
9 23 31
9 23 31
9 23 31
9 23 31
9 23 31
9 23 31
9 23 31
9 23 31
9 23 31
9 23 31
9 23 31
9 23 31
9 23 31
9 23 31
9 23 31
9 23 31
9 23 31
9 23 31
9 23 31
9 23 31
9 23 31
9 23 31
9 23 31
9 23 31
9 23 31
9 23 31
9 23 31
9 23 31
9 23 31
9 23 31
9 23 31
9 23 31
9 23 31
9 23 31
9 23 31
9 23 31
9 23 31
9 23 31
9 23 31
9 23 31
9 23 31
9 23 31
9 23 31
9 23 31
35 65 75
35 65 75
35 65 75
60 95 105
35 65 75
35 65 75
35 65 75
60 95 105
35 65 75
35 65 75
35 65 75
60 95 105
35 65 75
35 65 75
35 65 75
60 95 105
9 23 31
9 23 31
9 23 31
90 210 235
90 210 235
90 210 235
90 210 235
90 210 235
90 210 235
90 210 235
90 210 235
90 210 235
90 210 235
9 23 31
9 23 31
9 23 31
9 23 31
9 23 31
9 23 31
90 210 235
90 210 235
90 210 235
90 210 235
90 210 235
90 210 235
90 210 235
90 210 235
90 210 235
90 210 235
9 23 31
9 23 31
9 23 31
9 23 31
9 23 31
9 23 31
9 23 31
9 23 31
9 23 31
9 23 31
9 23 31
250 195 65
9 23 31
9 23 31
9 23 31
9 23 31
9 23 31
9 23 31
9 23 31
35 65 75
35 65 75
60 95 105
35 65 75
35 65 75
35 65 75
60 95 105
35 65 75
35 65 75
35 65 75
60 95 105
35 65 75
35 65 75
35 65 75
60 95 105
35 65 75
9 23 31
9 23 31
9 23 31
90 210 235
90 210 235
90 210 235
90 210 235
90 210 235
90 210 235
90 210 235
90 210 235
90 210 235
90 210 235
9 23 31
9 23 31
9 23 31
9 23 31
9 23 31
9 23 31
90 210 235
90 210 235
90 210 235
90 210 235
90 210 235
90 210 235
90 210 235
90 210 235
90 210 235
90 210 235
9 23 31
9 23 31
9 23 31
9 23 31
9 23 31
9 23 31
9 23 31
9 23 31
9 23 31
9 23 31
250 195 65
250 195 65
250 195 65
9 23 31
9 23 31
9 23 31
9 23 31
9 23 31
9 23 31
35 65 75
60 95 105
35 65 75
35 65 75
35 65 75
60 95 105
35 65 75
35 65 75
35 65 75
60 95 105
35 65 75
35 65 75
35 65 75
60 95 105
35 65 75
35 65 75
9 23 31
9 23 31
9 23 31
90 210 235
90 210 235
90 210 235
90 210 235
90 210 235
90 210 235
90 210 235
90 210 235
90 210 235
90 210 235
9 23 31
9 23 31
9 23 31
9 23 31
9 23 31
9 23 31
90 210 235
90 210 235
90 210 235
90 210 235
90 210 235
90 210 235
90 210 235
90 210 235
90 210 235
90 210 235
9 23 31
9 23 31
9 23 31
9 23 31
9 23 31
9 23 31
9 23 31
9 23 31
9 23 31
250 195 65
250 195 65
250 195 65
250 195 65
250 195 65
9 23 31
9 23 31
9 23 31
9 23 31
9 23 31
60 95 105
35 65 75
35 65 75
35 65 75
60 95 105
35 65 75
35 65 75
35 65 75
60 95 105
35 65 75
35 65 75
35 65 75
60 95 105
35 65 75
35 65 75
35 65 75
9 23 31
9 23 31
9 23 31
90 210 235
90 210 235
90 210 235
255 255 255
90 210 235
90 210 235
90 210 235
255 255 255
90 210 235
90 210 235
9 23 31
9 23 31
9 23 31
9 23 31
9 23 31
9 23 31
90 210 235
90 210 235
90 210 235
255 255 255
90 210 235
90 210 235
90 210 235
255 255 255
90 210 235
90 210 235
9 23 31
9 23 31
9 23 31
9 23 31
9 23 31
9 23 31
9 23 31
9 23 31
250 195 65
250 195 65
250 195 65
250 195 65
250 195 65
250 195 65
250 195 65
9 23 31
9 23 31
9 23 31
9 23 31
35 65 75
35 65 75
35 65 75
60 95 105
35 65 75
35 65 75
35 65 75
60 95 105
35 65 75
35 65 75
35 65 75
60 95 105
35 65 75
35 65 75
35 65 75
60 95 105
9 23 31
9 23 31
9 23 31
90 210 235
90 210 235
90 210 235
90 210 235
90 210 235
90 210 235
90 210 235
90 210 235
90 210 235
90 210 235
9 23 31
9 23 31
9 23 31
9 23 31
9 23 31
9 23 31
90 210 235
90 210 235
90 210 235
90 210 235
90 210 235
90 210 235
90 210 235
90 210 235
90 210 235
90 210 235
9 23 31
9 23 31
9 23 31
9 23 31
9 23 31
9 23 31
9 23 31
250 195 65
250 195 65
250 195 65
250 195 65
250 195 65
250 195 65
250 195 65
250 195 65
250 195 65
9 23 31
9 23 31
9 23 31
35 65 75
35 65 75
60 95 105
35 65 75
35 65 75
35 65 75
60 95 105
35 65 75
35 65 75
35 65 75
60 95 105
35 65 75
35 65 75
35 65 75
60 95 105
35 65 75
9 23 31
9 23 31
9 23 31
90 210 235
90 210 235
90 210 235
90 210 235
90 210 235
90 210 235
90 210 235
90 210 235
90 210 235
90 210 235
9 23 31
9 23 31
9 23 31
9 23 31
9 23 31
9 23 31
90 210 235
90 210 235
90 210 235
90 210 235
90 210 235
90 210 235
90 210 235
90 210 235
90 210 235
90 210 235
9 23 31
9 23 31
9 23 31
9 23 31
9 23 31
9 23 31
250 195 65
250 195 65
250 195 65
250 195 65
250 195 65
250 195 65
250 195 65
250 195 65
250 195 65
250 195 65
250 195 65
9 23 31
9 23 31
35 65 75
60 95 105
35 65 75
35 65 75
35 65 75
60 95 105
35 65 75
35 65 75
35 65 75
60 95 105
35 65 75
35 65 75
35 65 75
60 95 105
35 65 75
35 65 75
9 23 31
9 23 31
9 23 31
90 210 235
90 210 235
90 210 235
90 210 235
90 210 235
90 210 235
90 210 235
90 210 235
90 210 235
90 210 235
9 23 31
9 23 31
9 23 31
9 23 31
9 23 31
9 23 31
90 210 235
90 210 235
90 210 235
90 210 235
90 210 235
90 210 235
90 210 235
90 210 235
90 210 235
90 210 235
9 23 31
9 23 31
9 23 31
9 23 31
9 23 31
250 195 65
250 195 65
250 195 65
250 195 65
250 195 65
250 195 65
250 195 65
250 195 65
250 195 65
250 195 65
250 195 65
250 195 65
250 195 65
9 23 31
60 95 105
35 65 75
35 65 75
35 65 75
60 95 105
35 65 75
35 65 75
35 65 75
60 95 105
35 65 75
35 65 75
35 65 75
60 95 105
35 65 75
35 65 75
35 65 75
9 23 31
9 23 31
9 23 31
90 210 235
90 210 235
90 210 235
90 210 235
90 210 235
90 210 235
90 210 235
90 210 235
90 210 235
90 210 235
9 23 31
9 23 31
9 23 31
9 23 31
9 23 31
9 23 31
90 210 235
90 210 235
90 210 235
90 210 235
90 210 235
90 210 235
90 210 235
90 210 235
90 210 235
90 210 235
9 23 31
9 23 31
9 23 31
9 23 31
9 23 31
9 23 31
250 195 65
250 195 65
250 195 65
250 195 65
250 195 65
250 195 65
250 195 65
250 195 65
250 195 65
250 195 65
250 195 65
9 23 31
9 23 31
35 65 75
35 65 75
35 65 75
60 95 105
35 65 75
35 65 75
35 65 75
60 95 105
35 65 75
35 65 75
35 65 75
60 95 105
35 65 75
35 65 75
35 65 75
60 95 105
9 23 31
9 23 31
9 23 31
90 210 235
90 210 235
90 210 235
90 210 235
90 210 235
90 210 235
90 210 235
90 210 235
90 210 235
90 210 235
9 23 31
9 23 31
9 23 31
9 23 31
9 23 31
9 23 31
90 210 235
90 210 235
90 210 235
90 210 235
90 210 235
90 210 235
90 210 235
90 210 235
90 210 235
90 210 235
9 23 31
9 23 31
9 23 31
9 23 31
9 23 31
9 23 31
9 23 31
250 195 65
250 195 65
250 195 65
250 195 65
250 195 65
250 195 65
250 195 65
250 195 65
250 195 65
9 23 31
9 23 31
9 23 31
35 65 75
35 65 75
60 95 105
35 65 75
35 65 75
35 65 75
60 95 105
35 65 75
35 65 75
35 65 75
60 95 105
35 65 75
35 65 75
35 65 75
60 95 105
35 65 75
9 23 31
9 23 31
9 23 31
90 210 235
90 210 235
90 210 235
90 210 235
90 210 235
90 210 235
90 210 235
90 210 235
90 210 235
90 210 235
9 23 31
9 23 31
9 23 31
9 23 31
9 23 31
9 23 31
90 210 235
90 210 235
90 210 235
90 210 235
90 210 235
90 210 235
90 210 235
90 210 235
90 210 235
90 210 235
9 23 31
9 23 31
9 23 31
9 23 31
9 23 31
9 23 31
9 23 31
9 23 31
250 195 65
250 195 65
250 195 65
250 195 65
250 195 65
250 195 65
250 195 65
9 23 31
9 23 31
9 23 31
9 23 31
35 65 75
60 95 105
35 65 75
35 65 75
35 65 75
60 95 105
35 65 75
35 65 75
35 65 75
60 95 105
35 65 75
35 65 75
35 65 75
60 95 105
35 65 75
35 65 75
9 23 31
9 23 31
9 23 31
90 210 235
90 210 235
90 210 235
90 210 235
90 210 235
90 210 235
90 210 235
90 210 235
90 210 235
90 210 235
9 23 31
9 23 31
9 23 31
9 23 31
9 23 31
9 23 31
90 210 235
90 210 235
90 210 235
90 210 235
90 210 235
90 210 235
90 210 235
90 210 235
90 210 235
90 210 235
9 23 31
9 23 31
9 23 31
9 23 31
9 23 31
9 23 31
9 23 31
9 23 31
9 23 31
250 195 65
250 195 65
250 195 65
250 195 65
250 195 65
9 23 31
9 23 31
9 23 31
9 23 31
9 23 31
60 95 105
35 65 75
35 65 75
35 65 75
60 95 105
35 65 75
35 65 75
35 65 75
60 95 105
35 65 75
35 65 75
35 65 75
60 95 105
35 65 75
35 65 75
35 65 75
9 23 31
9 23 31
9 23 31
9 23 31
9 23 31
9 23 31
9 23 31
9 23 31
9 23 31
9 23 31
9 23 31
9 23 31
9 23 31
9 23 31
9 23 31
9 23 31
9 23 31
9 23 31
9 23 31
90 210 235
90 210 235
90 210 235
90 210 235
90 210 235
90 210 235
90 210 235
90 210 235
90 210 235
90 210 235
9 23 31
9 23 31
9 23 31
9 23 31
9 23 31
9 23 31
9 23 31
9 23 31
9 23 31
9 23 31
250 195 65
250 195 65
250 195 65
9 23 31
9 23 31
9 23 31
9 23 31
9 23 31
9 23 31
35 65 75
35 65 75
35 65 75
60 95 105
35 65 75
35 65 75
35 65 75
60 95 105
35 65 75
35 65 75
35 65 75
60 95 105
35 65 75
35 65 75
35 65 75
60 95 105
9 23 31
9 23 31
9 23 31
9 23 31
9 23 31
9 23 31
9 23 31
9 23 31
9 23 31
9 23 31
9 23 31
9 23 31
9 23 31
9 23 31
9 23 31
9 23 31
9 23 31
9 23 31
9 23 31
9 23 31
9 23 31
9 23 31
9 23 31
9 23 31
9 23 31
9 23 31
9 23 31
9 23 31
9 23 31
9 23 31
9 23 31
9 23 31
9 23 31
9 23 31
9 23 31
9 23 31
9 23 31
9 23 31
9 23 31
9 23 31
250 195 65
9 23 31
9 23 31
9 23 31
9 23 31
9 23 31
9 23 31
9 23 31
35 65 75
35 65 75
60 95 105
35 65 75
35 65 75
35 65 75
60 95 105
35 65 75
35 65 75
35 65 75
60 95 105
35 65 75
35 65 75
35 65 75
60 95 105
35 65 75
9 23 31
9 23 31
9 23 31
9 23 31
9 23 31
9 23 31
9 23 31
9 23 31
9 23 31
9 23 31
9 23 31
9 23 31
9 23 31
9 23 31
9 23 31
9 23 31
9 23 31
9 23 31
9 23 31
9 23 31
9 23 31
9 23 31
9 23 31
9 23 31
9 23 31
9 23 31
9 23 31
9 23 31
9 23 31
9 23 31
9 23 31
9 23 31
9 23 31
9 23 31
9 23 31
9 23 31
9 23 31
9 23 31
9 23 31
9 23 31
9 23 31
9 23 31
9 23 31
9 23 31
9 23 31
9 23 31
9 23 31
9 23 31
35 65 75
60 95 105
35 65 75
35 65 75
35 65 75
60 95 105
35 65 75
35 65 75
35 65 75
60 95 105
35 65 75
35 65 75
35 65 75
60 95 105
35 65 75
35 65 75
